dist/img/logo.svg

<svg width="146" height="30" viewBox="0 0 146 30" fill="none" xmlns="http://www.w3.org/2000/svg">
<path d="M56.0629 17.0893C56.0629 18.0088 55.6802 18.726 54.9149 19.2409C54.1497 19.7466 52.9719 19.9994 51.3818 19.9994C49.5133 19.9994 48.1467 19.6684 47.2821 19.0064C46.4274 18.3444 46 17.3651 46 16.0686H48.8474C48.8474 16.6663 49.0313 17.0847 49.399 17.3237C49.7767 17.5628 50.4724 17.6823 51.4861 17.6823C52.1619 17.6823 52.6191 17.641 52.8577 17.5582C53.0962 17.4754 53.2154 17.3467 53.2154 17.172C53.2154 16.9789 53.0515 16.8088 52.7235 16.6617C52.4054 16.5146 51.8688 16.3169 51.1134 16.0686C50.9246 16.0135 50.7805 15.9675 50.6811 15.9307C49.2996 15.4894 48.3753 15.1353 47.9082 14.8687C46.9541 14.3262 46.4771 13.586 46.4771 12.6481C46.4771 11.7838 46.8448 11.1264 47.5802 10.6758C48.3157 10.2253 49.3791 10 50.7705 10C52.3607 10 53.5683 10.3172 54.3932 10.9517C55.2181 11.5769 55.6305 12.4229 55.6305 13.4895H52.7831C52.7831 13.0297 52.6092 12.7217 52.2613 12.5654C51.9234 12.3999 51.4265 12.3171 50.7705 12.3171C49.8065 12.3171 49.3245 12.4642 49.3245 12.7585C49.3245 12.9056 49.399 13.0251 49.5481 13.1171C49.7071 13.1998 50.1842 13.3699 50.9793 13.6274C51.0687 13.655 51.2675 13.7193 51.5756 13.8205C51.8837 13.9124 52.1073 13.9814 52.2464 14.0274C52.3856 14.0733 52.6042 14.1515 52.9024 14.2618C53.2005 14.363 53.4291 14.4503 53.5881 14.5239C53.7571 14.5974 53.9708 14.6986 54.2292 14.8273C54.4876 14.9469 54.6864 15.0618 54.8255 15.1721C54.9746 15.2733 55.1386 15.402 55.3175 15.5583C55.4964 15.7054 55.6305 15.8571 55.72 16.0135C55.8194 16.1606 55.8989 16.3261 55.9585 16.51C56.0281 16.6939 56.0629 16.887 56.0629 17.0893Z" fill="white"/>
<path d="M57.0604 19.8615V10.1379H62.6509L63.605 19.2133H64.3057L65.2598 10.1379H70.8502V19.8615H68.0028V12.3861L68.5395 10.7862H67.8538L66.7058 19.8615H61.2048L60.0569 10.7862H59.3562L59.9078 12.3861V19.8615H57.0604Z" fill="white"/>
<path d="M81.7004 17.0893C81.7004 18.0088 81.3178 18.726 80.5525 19.2409C79.7872 19.7466 78.6095 19.9994 77.0193 19.9994C75.1509 19.9994 73.7843 19.6684 72.9197 19.0064C72.0649 18.3444 71.6376 17.3651 71.6376 16.0686H74.485C74.485 16.6663 74.6689 17.0847 75.0366 17.3237C75.4143 17.5628 76.11 17.6823 77.1237 17.6823C77.7995 17.6823 78.2567 17.641 78.4952 17.5582C78.7338 17.4754 78.853 17.3467 78.853 17.172C78.853 16.9789 78.689 16.8088 78.3611 16.6617C78.043 16.5146 77.5063 16.3169 76.751 16.0686C76.5622 16.0135 76.4181 15.9675 76.3187 15.9307C74.9372 15.4894 74.0129 15.1353 73.5458 14.8687C72.5917 14.3262 72.1146 13.586 72.1146 12.6481C72.1146 11.7838 72.4824 11.1264 73.2178 10.6758C73.9533 10.2253 75.0167 10 76.4081 10C77.9983 10 79.2058 10.3172 80.0307 10.9517C80.8556 11.5769 81.2681 12.4229 81.2681 13.4895H78.4207C78.4207 13.0297 78.2468 12.7217 77.8989 12.5654C77.561 12.3999 77.0641 12.3171 76.4081 12.3171C75.4441 12.3171 74.962 12.4642 74.962 12.7585C74.962 12.9056 75.0366 13.0251 75.1857 13.1171C75.3447 13.1998 75.8217 13.3699 76.6168 13.6274C76.7063 13.655 76.905 13.7193 77.2131 13.8205C77.5212 13.9124 77.7449 13.9814 77.884 14.0274C78.0231 14.0733 78.2418 14.1515 78.54 14.2618C78.8381 14.363 79.0667 14.4503 79.2257 14.5239C79.3947 14.5974 79.6084 14.6986 79.8668 14.8273C80.1252 14.9469 80.3239 15.0618 80.4631 15.1721C80.6122 15.2733 80.7761 15.402 80.955 15.5583C81.1339 15.7054 81.2681 15.8571 81.3576 16.0135C81.4569 16.1606 81.5364 16.3261 81.5961 16.51C81.6656 16.6939 81.7004 16.887 81.7004 17.0893Z" fill="white"/>
<path d="M86.1489 10.1379H88.9218L90.3977 19.2133H91.0835L92.0525 10.1379H98.1349L99.1039 19.2133H99.7897L101.266 10.1379H104.038L102.413 19.8615H96.4801L95.4366 10.7862H94.7508L93.7073 19.8615H87.7739L86.1489 10.1379Z" fill="white"/>
<path d="M104.154 14.9928C104.154 13.5492 104.656 12.3585 105.659 11.4206C106.663 10.4735 108.01 10 109.7 10C111.379 10 112.721 10.4735 113.725 11.4206C114.728 12.3585 115.23 13.5492 115.23 14.9928C115.23 16.4456 114.728 17.6456 113.725 18.5926C112.721 19.5305 111.379 19.9994 109.7 19.9994C108.01 19.9994 106.663 19.5305 105.659 18.5926C104.656 17.6456 104.154 16.4456 104.154 14.9928ZM107.001 14.9928C107.001 15.8571 107.23 16.5238 107.687 16.9927C108.144 17.4525 108.815 17.6823 109.7 17.6823C110.584 17.6823 111.25 17.4525 111.697 16.9927C112.154 16.5238 112.383 15.8571 112.383 14.9928C112.383 14.1377 112.154 13.4803 111.697 13.0205C111.25 12.5516 110.584 12.3171 109.7 12.3171C108.815 12.3171 108.144 12.5516 107.687 13.0205C107.23 13.4803 107.001 14.1377 107.001 14.9928Z" fill="white"/>
<path d="M116.43 19.8615V10.1379H120.724C124.003 10.1379 125.643 11.0436 125.643 12.855C125.643 13.2504 125.554 13.586 125.375 13.8619C125.206 14.1377 124.962 14.3538 124.644 14.5101C124.326 14.6572 124.018 14.7676 123.72 14.8411C123.422 14.9055 123.079 14.956 122.691 14.9928V15.6273H124.331C124.788 15.6273 125.141 15.7468 125.39 15.9859C125.648 16.2249 125.777 16.556 125.777 16.9789V19.8615H122.93V16.6341H119.278V19.8615H116.43ZM119.278 14.317H120.724C121.548 14.317 122.065 14.2848 122.274 14.2205C122.622 14.1009 122.796 13.8251 122.796 13.3929C122.796 13.2366 122.776 13.1033 122.736 12.9929C122.706 12.8826 122.642 12.7952 122.542 12.7309C122.453 12.6665 122.368 12.6159 122.289 12.5792C122.219 12.5332 122.09 12.5056 121.901 12.4964C121.722 12.478 121.578 12.4688 121.469 12.4688C121.36 12.4596 121.176 12.455 120.917 12.455C120.828 12.455 120.763 12.455 120.724 12.455H119.278V14.317Z" fill="white"/>
<path d="M128.504 19.9994C128.036 20.0086 127.679 19.9029 127.43 19.6822C127.192 19.4524 127.072 19.1259 127.072 18.703V10.1379H129.92V17.6823L134.959 17.5444V19.8615L128.504 19.9994Z" fill="white"/>
<path d="M140.082 10.1379C140.728 10.1379 141.309 10.1701 141.826 10.2345C142.343 10.2988 142.869 10.4368 143.406 10.6482C143.953 10.8505 144.405 11.1264 144.763 11.4758C145.12 11.816 145.414 12.2849 145.642 12.8826C145.881 13.4803 146 14.1837 146 14.9928C146 15.802 145.881 16.5054 145.642 17.1031C145.414 17.7007 145.12 18.1743 144.763 18.5237C144.405 18.8639 143.953 19.1397 143.406 19.3512C142.869 19.5627 142.343 19.7006 141.826 19.765C141.309 19.8293 140.728 19.8615 140.082 19.8615H135.997V10.1379H140.082ZM140.082 17.5444C140.539 17.5444 140.887 17.5352 141.125 17.5168C141.374 17.4984 141.647 17.4479 141.945 17.3651C142.243 17.2732 142.462 17.1398 142.601 16.9651C142.75 16.7904 142.874 16.5422 142.974 16.2203C143.083 15.8893 143.138 15.4802 143.138 14.9928C143.138 14.5883 143.108 14.2434 143.048 13.9584C142.989 13.6642 142.889 13.4251 142.75 13.2412C142.611 13.0573 142.467 12.9102 142.318 12.7998C142.179 12.6895 141.97 12.6114 141.692 12.5654C141.413 12.5194 141.17 12.4918 140.961 12.4826C140.752 12.4642 140.459 12.455 140.082 12.455H138.844V17.5444H140.082Z" fill="white"/>
<path fill-rule="evenodd" clip-rule="evenodd" d="M27.1252 6.11324C28.9949 8.65706 30.0015 11.7232 30 14.8702C30.0017 16.9913 29.5439 19.0881 28.6573 21.0188C27.7708 22.9494 26.4762 24.669 24.8612 26.0612L23.7957 30L19.8103 28.9416C16.8022 29.9508 13.5485 29.9879 10.5177 29.0475C7.48694 28.1072 4.83561 26.2379 2.94556 23.7089C1.05551 21.18 0.0242861 18.1218 0.000423659 14.975C-0.0234388 11.8282 0.961287 8.75502 2.81277 6.1982C4.66426 3.64139 7.28695 1.73284 10.3031 0.747457C13.3193 -0.237929 16.5732 -0.249303 19.5963 0.714978C22.6194 1.67926 25.2556 3.56943 27.1252 6.11324ZM11.25 15C11.25 17.0711 9.57107 18.75 7.5 18.75C5.42893 18.75 3.75 17.0711 3.75 15C3.75 12.9289 5.42893 11.25 7.5 11.25C9.57107 11.25 11.25 12.9289 11.25 15ZM22.5 15C22.5 17.0711 20.8211 18.75 18.75 18.75C16.6789 18.75 15 17.0711 15 15C15 12.9289 16.6789 11.25 18.75 11.25C20.8211 11.25 22.5 12.9289 22.5 15Z" fill="#00E0FF"/>
<circle cx="30" cy="15" r="3.75" fill="white"/>
</svg>

<svg width="146" height="30" fill="none" xmlns="http://www.w3.org/2000/svg"><path d="M56.063 17.09c0 .919-.383 1.636-1.148 2.15-.765.507-1.943.76-3.533.76-1.869 0-3.235-.332-4.1-.994-.855-.662-1.282-1.64-1.282-2.937h2.847c0 .597.184 1.016.552 1.255.378.239 1.073.358 2.087.358.676 0 1.133-.041 1.372-.124.238-.083.357-.211.357-.386 0-.193-.164-.363-.492-.51-.318-.147-.854-.345-1.61-.593a6.894 6.894 0 0 1-.432-.138c-1.381-.442-2.306-.796-2.773-1.062-.954-.543-1.43-1.283-1.43-2.22 0-.865.367-1.523 1.102-1.973.736-.45 1.8-.676 3.19-.676 1.59 0 2.798.317 3.623.952.825.625 1.237 1.47 1.237 2.537h-2.847c0-.46-.174-.767-.522-.924-.338-.165-.835-.248-1.49-.248-.965 0-1.447.147-1.447.441 0 .148.075.267.224.36.16.082.636.252 1.431.51.09.027.288.091.597.192.308.092.531.161.67.207.14.046.358.125.656.235.298.101.527.188.686.262.17.073.383.175.641.303.259.12.457.235.596.345.15.101.314.23.492.386.18.147.313.3.403.456.1.147.179.312.239.496.07.184.104.377.104.58Zm.997 2.771v-9.723h5.59l.955 9.075h.7l.955-9.075h5.59v9.723h-2.847v-7.475l.537-1.6h-.686l-1.148 9.075h-5.501l-1.148-9.075h-.7l.55 1.6v7.476H57.06ZM81.7 17.09c0 .919-.382 1.636-1.148 2.15-.765.507-1.943.76-3.533.76-1.868 0-3.235-.332-4.1-.994-.854-.662-1.281-1.64-1.281-2.937h2.847c0 .597.184 1.016.552 1.255.377.239 1.073.358 2.087.358.675 0 1.133-.041 1.371-.124.239-.083.358-.211.358-.386 0-.193-.164-.363-.492-.51-.318-.147-.855-.345-1.61-.593a6.894 6.894 0 0 1-.432-.138c-1.382-.442-2.306-.796-2.773-1.062-.954-.543-1.431-1.283-1.431-2.22 0-.865.367-1.523 1.103-1.973.735-.45 1.799-.676 3.19-.676 1.59 0 2.798.317 3.623.952.825.625 1.237 1.47 1.237 2.537h-2.847c0-.46-.174-.767-.522-.924-.338-.165-.835-.248-1.49-.248-.965 0-1.447.147-1.447.441 0 .148.075.267.224.36.159.082.636.252 1.43.51.09.027.289.091.597.192.308.092.532.161.671.207.14.046.358.125.656.235.298.101.527.188.686.262.169.073.382.175.64.303.26.12.458.235.597.345.15.101.313.23.492.386.179.147.313.3.403.456.099.147.178.312.238.496.07.184.104.377.104.58Zm4.449-6.952h2.773l1.476 9.075h.686l.968-9.075h6.083l.969 9.075h.686l1.476-9.075h2.772l-1.625 9.723H96.48l-1.043-9.075h-.686l-1.044 9.075h-5.933l-1.625-9.723Zm18.005 4.855c0-1.444.502-2.635 1.505-3.572C106.663 10.474 108.01 10 109.7 10c1.679 0 3.021.473 4.025 1.42 1.003.938 1.505 2.13 1.505 3.573 0 1.453-.502 2.653-1.505 3.6-1.004.938-2.346 1.406-4.025 1.406-1.69 0-3.037-.468-4.041-1.406-1.003-.947-1.505-2.147-1.505-3.6Zm2.847 0c0 .864.229 1.53.686 2 .457.46 1.128.69 2.013.69.884 0 1.55-.23 1.997-.69.457-.47.686-1.136.686-2 0-.855-.229-1.513-.686-1.973-.447-.468-1.113-.703-1.997-.703-.885 0-1.556.235-2.013.704-.457.46-.686 1.117-.686 1.972Zm9.429 4.868v-9.723h4.294c3.279 0 4.919.906 4.919 2.717 0 .395-.089.731-.268 1.007a1.724 1.724 0 0 1-.731.648 5.14 5.14 0 0 1-.924.331 8.893 8.893 0 0 1-1.029.152v.634h1.64c.457 0 .81.12 1.059.359.258.239.387.57.387.993v2.883h-2.847v-3.228h-3.652v3.227h-2.848Zm2.848-5.544h1.446c.824 0 1.341-.032 1.55-.097.348-.12.522-.395.522-.827 0-.156-.02-.29-.06-.4a.44.44 0 0 0-.194-.262 1.557 1.557 0 0 0-.253-.152c-.07-.046-.199-.073-.388-.083a4.428 4.428 0 0 0-.432-.027 7.528 7.528 0 0 0-.552-.014h-1.639v1.862ZM128.504 20c-.468.009-.825-.097-1.074-.318-.238-.23-.358-.556-.358-.979v-8.565h2.848v7.544l5.039-.138v2.317l-6.455.138Zm11.578-9.862c.646 0 1.227.032 1.744.097a6.5 6.5 0 0 1 1.58.413c.547.203.999.478 1.357.828.357.34.651.809.879 1.407.239.597.358 1.3.358 2.11 0 .809-.119 1.512-.358 2.11-.228.598-.522 1.071-.879 1.42-.358.34-.81.617-1.357.828a6.5 6.5 0 0 1-1.58.414 14.23 14.23 0 0 1-1.744.096h-4.085v-9.723h4.085Zm0 7.406c.457 0 .805-.009 1.043-.027a4.37 4.37 0 0 0 .82-.152c.298-.092.517-.225.656-.4.149-.175.273-.423.373-.745.109-.33.164-.74.164-1.227 0-.405-.03-.75-.09-1.035a1.744 1.744 0 0 0-.298-.717 2.176 2.176 0 0 0-.432-.441c-.139-.11-.348-.189-.626-.235a6.259 6.259 0 0 0-.731-.082 10.677 10.677 0 0 0-.879-.028h-1.238v5.09h1.238Z" fill="#fff"/><path fill-rule="evenodd" clip-rule="evenodd" d="M27.125 6.113a14.772 14.772 0 0 1 1.532 14.906 14.83 14.83 0 0 1-3.796 5.042L23.796 30l-3.986-1.058a15.13 15.13 0 0 1-9.292.105 14.997 14.997 0 0 1-7.572-5.338A14.774 14.774 0 0 1 0 14.975a14.77 14.77 0 0 1 2.813-8.777 14.992 14.992 0 0 1 7.49-5.45 15.131 15.131 0 0 1 9.293-.033 14.994 14.994 0 0 1 7.53 5.398ZM11.25 15a3.75 3.75 0 1 1-7.5 0 3.75 3.75 0 0 1 7.5 0Zm11.25 0a3.75 3.75 0 1 1-7.5 0 3.75 3.75 0 0 1 7.5 0Z" fill="#00E0FF"/><circle cx="30" cy="15" r="3.75" fill="#fff"/></svg>
